X:1     %Music
T:Old Zip Coon
B:Singing Together, Autumn 1960, BBC Publications
F:http://www.folkinfo.org/songs
M:4/4     %Meter
Q:1/4=200
L:1/8     %
K:D
F3/2E/ |D2 D2 D2 F3/2G/ |A2 A2 A2
w:There was once a man with a dou-ble chin, 
 D3/2E/ |F2 F2 F2 D3/2E/ | F2 E2 E2
w:Who per-formed with skill on a vi-o-lin:
 F3/2E/ |D2 D2 D2 F3/2G/ |A2 A2 A2 
w: And he played in time and he played in tune, 
D3/2E/ |F A2 B A3/2F/ D3/2E/  | F2 D2 D4 
w:But he nev-er played an-y-thing but Old Zip Coon'. 
|F2 A2 A2 A2 |F2 A2 A2 z
w:''Old Zip Coon' he played all day 
 F |G2 B2 B2 B2 | G2 B2 B2 z
w:Un-til he drove his friends a-way; 
c |d2 d2 A2 AG |F A2 F E2
w:He played all night by the light of the moon 
 DE |F A2 B A3/2F/ D3/2E/ | F2 D2 D2 z2 |]
w:And he would-n't play an-y-thing but 'Old Zip Coon' 